X:1
T:Bath (Cooke), 66.86.88
T:Bath (Cooke), 66.86.88
T:William Henry Cooke (1838-1898)
T:Public Domain Courtesy of the Cyber Hymnal™
C:William Henry Cooke (1838-1898)
Z:Public Domain
Z:Courtesy of the Cyber Hymnal™
%%score ( 1 2 ) ( 3 4 )
L:1/8
Q:1/4=160
M:4/2
K:Eb
V:1 treble 
V:2 treble 
V:3 bass 
V:4 bass 
V:1
 [EG]4 [EG]2 [EG]2 [EF]4 [DA]4 | [EG]8 [EG]4 | [FG]2 [EG]2 [FA]4 [DF]4 | [EG]8 [EG]4 | %4
 [EG]2 [EG]2 [F=A]4 [CF]4 | [FB]4 [Ec]4 [Dd]8 | [Fd]4 [FG]2 [Ec]2 [FB]4 [F=A]4 | [FB]8 [DF]4 | %8
 [DF]2 [DF]2 [EG]4 [EG]4 | [EA]4 [_DB]4 [Cc]8 | [EB]4 E2 E2 A4 ([EG]2 [FA]2) | [EF]4 [DF]4 E8 |] %12
V:2
 x16 | x12 | x12 | x12 | x12 | x16 | x16 | x12 | x12 | x16 | x4 E2 E2 (E2 D2) x4 | x8 E8 |] %12
V:3
 [E,B,]4 [E,B,]2 [E,B,]2 [B,,B,]4 [B,,B,]4 | [E,B,]8 [E,B,]4 | [D,=B,]2 [C,C]2 [A,,C]4 [A,,_B,]4 | %3
 [E,B,]8 [E,B,]4 | [E,B,]2 [E,B,]2 [E,C]4 [E,=A,]4 | [D,B,]4 [C,=A,]4 [B,,B,]8 | %6
 [B,,B,]4 [E,B,]2 [C,C]2 [F,D]4 [F,C]4 | [B,,D]8 [B,,B,]4 | [B,,B,]2 [B,,B,]2 [E,B,]4 [_D,B,]4 | %9
 [C,A,]4 [B,,G,]4 [A,,A,]8 | [G,,B,]4 [G,B,]2 [G,B,]2 [F,B,]4 ([E,B,]2 [A,,C]2) | %11
 [B,,B,-]4 (B,2 A,2) [E,G,]8 |] %12
V:4
 x16 | x12 | x12 | x12 | x12 | x16 | x16 | x12 | x12 | x16 | x16 | x4 B,,4 x8 |] %12

